_inc/images/systems/logos/c16.svg

<svg viewBox="0 0 264 39" xmlns="http://www.w3.org/2000/svg" xmlns:bx="https://boxy-svg.com">
    <path d="M25.16 11.122h16.099l-7.048 7.422H25.16v-7.422Z" style="fill-opacity:1;fill:#fff" bx:origin="-1.563 -1.499"/>
    <path d="M25.145 27.88h16.098l-7.047-7.421h-9.051v7.421Z" style="fill-opacity:1;fill:#fff" bx:origin="-1.562 -2.757"/>
    <path d="M24.81.765v9.35c-1.646-1.028-3.475-1.536-5.492-1.536-1.924 0-3.71.487-5.354 1.469-1.648.973-2.942 2.306-3.889 3.995a10.876 10.876 0 0 0-1.42 5.415c0 1.946.475 3.744 1.42 5.405a10.582 10.582 0 0 0 3.901 3.941 10.381 10.381 0 0 0 5.342 1.458c1.998 0 3.83-.492 5.491-1.468v9.392a18.752 18.752 0 0 1-5.491.814c-3.444 0-6.659-.877-9.637-2.632-2.976-1.754-5.337-4.142-7.075-7.146C.868 26.217 0 22.96 0 19.459c0-2.594.502-5.092 1.511-7.494C2.519 9.568 3.918 7.47 5.713 5.673a19.449 19.449 0 0 1 6.158-4.181C14.189.497 16.67 0 19.318 0c1.83 0 3.66.261 5.492.765" style="fill-opacity:1;fill:#fff" bx:origin="0 0"/>
    <path d="M67.663 20.898c-.082 2.32-.368 3.318-1.267 4.228-1.309 1.342-2.987 1.697-8.39 1.697-4.206 0-5.976-.294-7.338-1.291-1.335-.936-1.771-2.434-1.771-6.096 0-3.34.407-4.806 1.624-5.8 1.305-1.083 3.106-1.404 7.744-1.404 4.552 0 6.556.35 7.865 1.433 1.104.878 1.473 1.965 1.554 4.569h-5.213c-.175-1.578-1.187-2.109-4.206-2.109-3.568 0-4.233.556-4.233 3.456 0 1.818.29 2.521 1.219 2.903.608.266 1.711.41 3.073.41 3.016 0 3.887-.41 4.119-1.994l5.22-.002Z" style="fill-opacity:1;fill:#fff" bx:origin="-2.603 -0.838"/>
    <path d="M86.397 13.519c1.391 1.024 1.779 2.282 1.779 5.77 0 3.809-.349 5.102-1.595 6.154-1.309 1.086-3.027 1.381-8.098 1.381-5.134 0-6.852-.295-8.141-1.381-1.288-1.052-1.616-2.344-1.616-6.361 0-3.248.41-4.566 1.78-5.563 1.268-.937 3.271-1.262 7.956-1.262 4.683 0 6.666.323 7.935 1.262M73.86 19.642c0 1.845.246 2.46 1.165 2.842.635.292 1.799.439 3.456.439 3.886 0 4.561-.5 4.561-3.431 0-1.874-.307-2.547-1.248-2.925-.653-.264-1.861-.413-3.313-.413-3.925 0-4.621.527-4.621 3.488" style="fill-opacity:1;fill:#fff" bx:origin="-3.534 -0.841"/>
    <path d="M94.045 12.612v2.078h.267c.756-1.667 2.495-2.433 5.541-2.433 3.315 0 5.134.851 6.239 2.904.88-2.082 2.557-2.904 5.91-2.904 2.842 0 4.54.53 5.726 1.788 1.185 1.23 1.452 2.373 1.452 5.943v6.48h-5.134v-6.48c-.04-2.31-.102-2.572-.594-3.073-.511-.526-1.39-.761-2.882-.761-1.554 0-2.516.264-3.048.88-.593.644-.756 1.465-.756 3.718v5.716h-5.134v-6.48c0-2.163-.061-2.545-.551-3.073-.471-.526-1.37-.761-2.844-.761-1.554 0-2.556.264-3.128.849-.593.586-.756 1.466-.756 3.749v5.716h-5.134V12.612h4.826Z" style="fill-opacity:1;fill:#fff" bx:origin="-2.978 -0.863"/>
    <path d="M125.213 12.612v2.078h.246c.756-1.667 2.494-2.433 5.541-2.433 3.315 0 5.134.851 6.239 2.904.88-2.082 2.557-2.904 5.93-2.904 2.843 0 4.52.53 5.706 1.788 1.185 1.23 1.452 2.373 1.452 5.943v6.48h-5.132v-6.48c-.021-2.31-.083-2.572-.573-3.073-.532-.526-1.392-.761-2.905-.761-1.533 0-2.494.264-3.048.88-.591.644-.755 1.465-.755 3.718v5.716h-5.134v-6.48c0-2.163-.062-2.545-.552-3.073-.471-.526-1.37-.761-2.842-.761-1.535 0-2.558.264-3.13.849-.593.586-.756 1.466-.756 3.749v5.716h-5.133V12.612h4.846Z" style="fill-opacity:1;fill:#fff" bx:origin="-4.018 -0.863"/>
    <path d="M169.103 13.519c1.389 1.024 1.758 2.282 1.758 5.77 0 3.809-.348 5.102-1.594 6.154-1.31 1.086-3.007 1.381-8.099 1.381-5.134 0-6.831-.295-8.139-1.381-1.269-1.052-1.597-2.344-1.597-6.361 0-3.248.41-4.566 1.78-5.563 1.268-.937 3.272-1.262 7.934-1.262 4.705 0 6.668.323 7.957 1.262m-12.537 6.123c0 1.845.224 2.46 1.165 2.842.635.292 1.799.439 3.435.439 3.906 0 4.561-.5 4.561-3.431 0-1.874-.287-2.547-1.248-2.925-.634-.264-1.86-.413-3.313-.413-3.905 0-4.6.527-4.6 3.488" style="fill-opacity:1;fill:#fff" bx:origin="-7.795 -0.841"/>
    <path d="M191.333 26.468h-4.827v-1.817h-.267c-.981 1.671-2.35 2.172-6.072 2.172-3.704 0-5.481-.383-6.668-1.466-1.126-1.055-1.472-2.465-1.472-5.921 0-3.518.552-5.185 2.003-6.149 1.247-.824 2.659-1.055 6.196-1.055 3.6 0 4.786.467 5.768 2.227h.205V6.926h5.132v19.542h.002Zm-14.174-7.09c0 3.044.573 3.514 4.439 3.514 1.882 0 3.272-.232 3.865-.643.573-.385.776-1.119.776-2.728 0-2.865-.674-3.396-4.334-3.396-4.049 0-4.746.471-4.746 3.253" style="fill-opacity:1;fill:#fff" bx:origin="-8.91 -0.348"/>
    <path d="M209.923 13.519c1.391 1.024 1.779 2.282 1.779 5.77 0 3.809-.347 5.102-1.595 6.154-1.31 1.086-3.026 1.381-8.099 1.381-5.133 0-6.831-.295-8.141-1.381-1.287-1.052-1.593-2.344-1.593-6.361 0-3.248.409-4.566 1.758-5.563 1.289-.937 3.293-1.262 7.957-1.262 4.703 0 6.666.323 7.934 1.262m-12.517 6.123c0 1.845.226 2.46 1.167 2.842.613.292 1.778.439 3.435.439 3.884 0 4.56-.5 4.56-3.431 0-1.874-.286-2.547-1.247-2.925-.634-.264-1.861-.413-3.313-.413-3.906 0-4.602.527-4.602 3.488" style="fill-opacity:1;fill:#fff" bx:origin="-9.897 -0.841"/>
    <path d="M217.592 12.612v2.078h.267c.94-1.76 2.393-2.433 5.276-2.433 4.131 0 5.522 1.408 5.522 5.568v.937h-4.827c0-2.053-.593-2.608-2.699-2.608-1.166 0-2.127.353-2.618.997-.492.674-.634 1.435-.634 3.575v5.742h-5.134V12.612h4.847Z" style="fill-opacity:1;fill:#fff" bx:origin="-13.37 -0.863"/>
    <path d="M247.962 22.045c-.389 3.839-2.27 4.778-9.613 4.778-3.966 0-5.849-.355-7.097-1.291-1.349-1.025-1.738-2.407-1.738-5.951 0-3.72.387-5.098 1.841-6.12 1.349-.937 3.047-1.229 7.525-1.229 4.623 0 6.259.292 7.506 1.314 1.207 1.026 1.679 2.579 1.679 5.714 0 .176 0 .818-.021 1.403h-13.417c0 1.409.165 1.875.655 2.26.552.41 1.616.588 3.476.588 3.272 0 3.885-.235 4.091-1.465l5.113-.001Zm-5.051-4.22c-.042-1.085-.102-1.347-.41-1.671-.471-.5-1.512-.703-3.537-.703-3.456 0-4.274.44-4.336 2.374h8.283Z" style="fill-opacity:1;fill:#fff" bx:origin="-12.373 -0.838"/>
    <path d="M254.52 23.647v-8.463l1.311-.375v8.838h-1.311Zm6.495.176a3.046 3.046 0 0 1-1.443-.347 2.52 2.52 0 0 1-1.03-.994c-.25-.431-.376-.935-.376-1.511 0-.406.062-.806.186-1.198.124-.396.386-.963.786-1.704.402-.74 1.043-1.842 1.922-3.306l1.112.655a54.864 54.864 0 0 0-1.885 3.061.597.597 0 0 1-.083.116c.125-.116.29-.21.497-.279.209-.07.449-.105.719-.105.51 0 .962.123 1.356.368.392.245.693.572.906.981.212.409.318.852.318 1.328 0 .609-.127 1.135-.381 1.578a2.478 2.478 0 0 1-1.058 1.01c-.452.231-.967.347-1.546.347Zm.083-1.144c.485 0 .868-.156 1.149-.468.281-.312.422-.714.422-1.206 0-.515-.145-.922-.435-1.22-.289-.3-.657-.451-1.103-.451-.494 0-.889.152-1.187.456-.298.303-.447.716-.447 1.24 0 .476.153.869.459 1.181.304.312.684.468 1.142.468Z" style="fill:#fff;white-space:pre"/>
</svg>

<?xml version="1.0" encoding="utf-8"?>
<svg version="1.1" viewBox="0 0 264 39" xmlns="http://www.w3.org/2000/svg" xmlns:bx="https://boxy-svg.com">
  <path id="path1922" d="M 25.16 11.122 L 41.259 11.122 L 34.211 18.544 L 25.16 18.544 L 25.16 11.122 Z" style="fill-opacity: 1; fill: rgb(255, 255, 255);" bx:origin="-1.563 -1.499"/>
  <path id="path3805" d="M 25.145 27.88 L 41.243 27.88 L 34.196 20.459 L 25.145 20.459 L 25.145 27.88 Z" style="fill-opacity: 1; fill: rgb(255, 255, 255);" bx:origin="-1.562 -2.757"/>
  <path id="path4382" d="M 24.81 0.765 L 24.81 10.115 C 23.164 9.087 21.335 8.579 19.318 8.579 C 17.394 8.579 15.608 9.066 13.964 10.048 C 12.316 11.021 11.022 12.354 10.075 14.043 C 9.129 15.723 8.655 17.534 8.655 19.458 C 8.655 21.404 9.13 23.202 10.075 24.863 C 11.022 26.519 12.321 27.834 13.976 28.804 C 15.628 29.773 17.408 30.262 19.318 30.262 C 21.316 30.262 23.148 29.77 24.809 28.794 L 24.809 38.186 C 23.025 38.729 21.195 39 19.318 39 C 15.874 39 12.659 38.123 9.681 36.368 C 6.705 34.614 4.344 32.226 2.606 29.222 C 0.868 26.217 0 22.96 0 19.459 C 0 16.865 0.502 14.367 1.511 11.965 C 2.519 9.568 3.918 7.47 5.713 5.673 C 7.503 3.877 9.559 2.484 11.871 1.492 C 14.189 0.497 16.67 0 19.318 0 C 21.148 0 22.978 0.261 24.81 0.765" style="fill-opacity: 1; fill: rgb(255, 255, 255);" bx:origin="0 0"/>
  <path id="path4340" d="M 67.663 20.898 C 67.581 23.218 67.295 24.216 66.396 25.126 C 65.087 26.468 63.409 26.823 58.006 26.823 C 53.8 26.823 52.03 26.529 50.668 25.532 C 49.333 24.596 48.897 23.098 48.897 19.436 C 48.897 16.096 49.304 14.63 50.521 13.636 C 51.826 12.553 53.627 12.232 58.265 12.232 C 62.817 12.232 64.821 12.582 66.13 13.665 C 67.234 14.543 67.603 15.63 67.684 18.234 L 62.471 18.234 C 62.296 16.656 61.284 16.125 58.265 16.125 C 54.697 16.125 54.032 16.681 54.032 19.581 C 54.032 21.399 54.322 22.102 55.251 22.484 C 55.859 22.75 56.962 22.894 58.324 22.894 C 61.34 22.894 62.211 22.484 62.443 20.9 L 67.663 20.898 L 67.663 20.898 Z" style="fill-opacity: 1; fill: rgb(255, 255, 255);" bx:origin="-2.603 -0.838"/>
  <path id="path4342" d="M 86.397 13.519 C 87.788 14.543 88.176 15.801 88.176 19.289 C 88.176 23.098 87.827 24.391 86.581 25.443 C 85.272 26.529 83.554 26.824 78.483 26.824 C 73.349 26.824 71.631 26.529 70.342 25.443 C 69.054 24.391 68.726 23.099 68.726 19.082 C 68.726 15.834 69.136 14.516 70.506 13.519 C 71.774 12.582 73.777 12.257 78.462 12.257 C 83.145 12.257 85.128 12.58 86.397 13.519 M 73.86 19.642 C 73.86 21.487 74.106 22.102 75.025 22.484 C 75.66 22.776 76.824 22.923 78.481 22.923 C 82.367 22.923 83.042 22.423 83.042 19.492 C 83.042 17.618 82.735 16.945 81.794 16.567 C 81.141 16.303 79.933 16.154 78.481 16.154 C 74.556 16.154 73.86 16.681 73.86 19.642" style="fill-opacity: 1; fill: rgb(255, 255, 255);" bx:origin="-3.534 -0.841"/>
  <path id="path4344" d="M 94.045 12.612 L 94.045 14.69 L 94.312 14.69 C 95.068 13.023 96.807 12.257 99.853 12.257 C 103.168 12.257 104.987 13.108 106.092 15.161 C 106.972 13.079 108.649 12.257 112.002 12.257 C 114.844 12.257 116.542 12.787 117.728 14.045 C 118.913 15.275 119.18 16.418 119.18 19.988 L 119.18 26.468 L 114.046 26.468 L 114.046 19.988 C 114.006 17.678 113.944 17.416 113.452 16.915 C 112.941 16.389 112.062 16.154 110.57 16.154 C 109.016 16.154 108.054 16.418 107.522 17.034 C 106.929 17.678 106.766 18.499 106.766 20.752 L 106.766 26.468 L 101.632 26.468 L 101.632 19.988 C 101.632 17.825 101.571 17.443 101.081 16.915 C 100.61 16.389 99.711 16.154 98.237 16.154 C 96.683 16.154 95.681 16.418 95.109 17.003 C 94.516 17.589 94.353 18.469 94.353 20.752 L 94.353 26.468 L 89.219 26.468 L 89.219 12.612 L 94.045 12.612 Z" style="fill-opacity: 1; fill: rgb(255, 255, 255);" bx:origin="-2.978 -0.863"/>
  <path id="path4346" d="M 125.213 12.612 L 125.213 14.69 L 125.459 14.69 C 126.215 13.023 127.953 12.257 131 12.257 C 134.315 12.257 136.134 13.108 137.239 15.161 C 138.119 13.079 139.796 12.257 143.169 12.257 C 146.012 12.257 147.689 12.787 148.875 14.045 C 150.06 15.275 150.327 16.418 150.327 19.988 L 150.327 26.468 L 145.195 26.468 L 145.195 19.988 C 145.174 17.678 145.112 17.416 144.622 16.915 C 144.09 16.389 143.23 16.154 141.717 16.154 C 140.184 16.154 139.223 16.418 138.669 17.034 C 138.078 17.678 137.914 18.499 137.914 20.752 L 137.914 26.468 L 132.78 26.468 L 132.78 19.988 C 132.78 17.825 132.718 17.443 132.228 16.915 C 131.757 16.389 130.858 16.154 129.386 16.154 C 127.851 16.154 126.828 16.418 126.256 17.003 C 125.663 17.589 125.5 18.469 125.5 20.752 L 125.5 26.468 L 120.367 26.468 L 120.367 12.612 L 125.213 12.612 Z" style="fill-opacity: 1; fill: rgb(255, 255, 255);" bx:origin="-4.018 -0.863"/>
  <path id="path4348" d="M 169.103 13.519 C 170.492 14.543 170.861 15.801 170.861 19.289 C 170.861 23.098 170.513 24.391 169.267 25.443 C 167.957 26.529 166.26 26.824 161.168 26.824 C 156.034 26.824 154.337 26.529 153.029 25.443 C 151.76 24.391 151.432 23.099 151.432 19.082 C 151.432 15.834 151.842 14.516 153.212 13.519 C 154.48 12.582 156.484 12.257 161.146 12.257 C 165.851 12.257 167.814 12.58 169.103 13.519 M 156.566 19.642 C 156.566 21.487 156.79 22.102 157.731 22.484 C 158.366 22.776 159.53 22.923 161.166 22.923 C 165.072 22.923 165.727 22.423 165.727 19.492 C 165.727 17.618 165.44 16.945 164.479 16.567 C 163.845 16.303 162.619 16.154 161.166 16.154 C 157.261 16.154 156.566 16.681 156.566 19.642" style="fill-opacity: 1; fill: rgb(255, 255, 255);" bx:origin="-7.795 -0.841"/>
  <path id="path4350" d="M 191.333 26.468 L 186.506 26.468 L 186.506 24.651 L 186.239 24.651 C 185.258 26.322 183.889 26.823 180.167 26.823 C 176.463 26.823 174.686 26.44 173.499 25.357 C 172.373 24.302 172.027 22.892 172.027 19.436 C 172.027 15.918 172.579 14.251 174.03 13.287 C 175.277 12.463 176.689 12.232 180.226 12.232 C 183.826 12.232 185.012 12.699 185.994 14.459 L 186.199 14.459 L 186.199 6.926 L 191.331 6.926 L 191.331 26.468 L 191.333 26.468 Z M 177.159 19.378 C 177.159 22.422 177.732 22.892 181.598 22.892 C 183.48 22.892 184.87 22.66 185.463 22.249 C 186.036 21.864 186.239 21.13 186.239 19.521 C 186.239 16.656 185.565 16.125 181.905 16.125 C 177.856 16.125 177.159 16.596 177.159 19.378" style="fill-opacity: 1; fill: rgb(255, 255, 255);" bx:origin="-8.91 -0.348"/>
  <path id="path4352" d="M 209.923 13.519 C 211.314 14.543 211.702 15.801 211.702 19.289 C 211.702 23.098 211.355 24.391 210.107 25.443 C 208.797 26.529 207.081 26.824 202.008 26.824 C 196.875 26.824 195.177 26.529 193.867 25.443 C 192.58 24.391 192.274 23.099 192.274 19.082 C 192.274 15.834 192.683 14.516 194.032 13.519 C 195.321 12.582 197.325 12.257 201.989 12.257 C 206.692 12.257 208.655 12.58 209.923 13.519 M 197.406 19.642 C 197.406 21.487 197.632 22.102 198.573 22.484 C 199.186 22.776 200.351 22.923 202.008 22.923 C 205.892 22.923 206.568 22.423 206.568 19.492 C 206.568 17.618 206.282 16.945 205.321 16.567 C 204.687 16.303 203.46 16.154 202.008 16.154 C 198.102 16.154 197.406 16.681 197.406 19.642" style="fill-opacity: 1; fill: rgb(255, 255, 255);" bx:origin="-9.897 -0.841"/>
  <path id="path4354" d="M 217.592 12.612 L 217.592 14.69 L 217.859 14.69 C 218.799 12.93 220.252 12.257 223.135 12.257 C 227.266 12.257 228.657 13.665 228.657 17.825 L 228.657 18.762 L 223.83 18.762 C 223.83 16.709 223.237 16.154 221.131 16.154 C 219.965 16.154 219.004 16.507 218.513 17.151 C 218.021 17.825 217.879 18.586 217.879 20.726 L 217.879 26.468 L 212.745 26.468 L 212.745 12.612 L 217.592 12.612 Z" style="fill-opacity: 1; fill: rgb(255, 255, 255);" bx:origin="-13.37 -0.863"/>
  <path id="path4356" d="M 247.962 22.045 C 247.573 25.884 245.692 26.823 238.349 26.823 C 234.383 26.823 232.5 26.468 231.252 25.532 C 229.903 24.507 229.514 23.125 229.514 19.581 C 229.514 15.861 229.901 14.483 231.355 13.461 C 232.704 12.524 234.402 12.232 238.88 12.232 C 243.503 12.232 245.139 12.524 246.386 13.546 C 247.593 14.572 248.065 16.125 248.065 19.26 C 248.065 19.436 248.065 20.078 248.044 20.663 L 234.627 20.663 C 234.627 22.072 234.792 22.538 235.282 22.923 C 235.834 23.333 236.898 23.511 238.758 23.511 C 242.03 23.511 242.643 23.276 242.849 22.046 L 247.962 22.045 L 247.962 22.045 Z M 242.911 17.825 C 242.869 16.74 242.809 16.478 242.501 16.154 C 242.03 15.654 240.989 15.451 238.964 15.451 C 235.508 15.451 234.69 15.891 234.628 17.825 L 242.911 17.825 Z" style="fill-opacity: 1; fill: rgb(255, 255, 255);" bx:origin="-12.373 -0.838"/>
  <path d="M 254.52 23.647 L 254.52 15.184 L 255.831 14.809 L 255.831 23.647 L 254.52 23.647 Z M 261.015 23.823 C 260.491 23.823 260.01 23.707 259.572 23.476 C 259.137 23.248 258.793 22.917 258.542 22.482 C 258.292 22.051 258.166 21.547 258.166 20.971 C 258.166 20.565 258.228 20.165 258.352 19.773 C 258.476 19.377 258.738 18.81 259.138 18.069 C 259.54 17.329 260.181 16.227 261.06 14.763 L 262.172 15.418 C 261.418 16.571 260.819 17.536 260.378 18.316 C 260.348 18.371 260.318 18.426 260.287 18.479 C 260.254 18.534 260.227 18.573 260.204 18.595 C 260.329 18.479 260.494 18.385 260.701 18.316 C 260.91 18.246 261.15 18.211 261.42 18.211 C 261.93 18.211 262.382 18.334 262.776 18.579 C 263.168 18.824 263.469 19.151 263.682 19.56 C 263.894 19.969 264 20.412 264 20.888 C 264 21.497 263.873 22.023 263.619 22.466 C 263.366 22.911 263.013 23.248 262.561 23.476 C 262.109 23.707 261.594 23.823 261.015 23.823 Z M 261.098 22.679 C 261.583 22.679 261.966 22.523 262.247 22.211 C 262.528 21.899 262.669 21.497 262.669 21.005 C 262.669 20.49 262.524 20.083 262.234 19.785 C 261.945 19.485 261.577 19.334 261.131 19.334 C 260.637 19.334 260.242 19.486 259.944 19.79 C 259.646 20.093 259.497 20.506 259.497 21.03 C 259.497 21.506 259.65 21.899 259.956 22.211 C 260.26 22.523 260.64 22.679 261.098 22.679 Z" style="fill: rgb(255, 255, 255); white-space: pre;"/>
</svg>
